assets/travel-grey/TravelGrey14.svg

<svg xmlns="http://www.w3.org/2000/svg" data-name="Layer 1" viewBox="0 0 128 128"><path d="M95.54 56.83v-3.914h5.73a1.25 1.25 0 000-2.5h-5.73v-5.993a13.118 13.118 0 00-13.1-13.1h-8.19v-2.697a4.777 4.777 0 00-4.772-4.773H58.522a4.777 4.777 0 00-4.772 4.773v2.694h-8.188a13.118 13.118 0 00-13.1 13.1v5.993H26.73a1.25 1.25 0 000 2.5h5.73v3.917a17.611 17.611 0 00-13.96 17.2v11.4a6.187 6.187 0 006.18 6.18h2.512v3.509a9.02 9.02 0 1018.04 0v-3.502h37.536v3.509a9.02 9.02 0 1018.04 0v-3.509h2.512a6.187 6.187 0 006.18-6.18v-11.4A17.611 17.611 0 0095.54 56.83zm-39.29-28.2a2.275 2.275 0 012.272-2.273h10.956a2.275 2.275 0 012.272 2.273v2.69h-15.5zM34.96 56.45V44.423a10.614 10.614 0 0110.6-10.6h36.877a10.614 10.614 0 0110.6 10.6V56.45zm7.772 38.676a6.52 6.52 0 11-13.04 0v-3.509h13.04zm55.576 0a6.52 6.52 0 11-13.04 0v-3.509h13.04zM107 85.438a3.684 3.684 0 01-3.68 3.68H24.68a3.684 3.684 0 01-3.68-3.68v-11.4A15.1 15.1 0 0136.084 58.95h55.832A15.1 15.1 0 01107 74.034z"/><path d="M40.251 70.039a7.791 7.791 0 107.79 7.791 7.8 7.8 0 00-7.79-7.791zm0 13.082a5.291 5.291 0 115.29-5.291 5.3 5.3 0 01-5.29 5.291zM87.749 70.039a7.791 7.791 0 107.791 7.791 7.8 7.8 0 00-7.791-7.791zm0 13.082a5.291 5.291 0 115.291-5.291 5.3 5.3 0 01-5.291 5.291z"/></svg>

<svg id="Layer_1" data-name="Layer 1" xmlns="http://www.w3.org/2000/svg" viewBox="0 0 128 128"><title>TAXI</title><path d="M95.54,56.83V52.916h5.73a1.25,1.25,0,0,0,0-2.5H95.54V44.423a13.118,13.118,0,0,0-13.1-13.1H74.25V28.626a4.777,4.777,0,0,0-4.772-4.773H58.522a4.777,4.777,0,0,0-4.772,4.773V31.32H45.562a13.118,13.118,0,0,0-13.1,13.1v5.993H26.73a1.25,1.25,0,0,0,0,2.5h5.73V56.83a17.611,17.611,0,0,0-13.96,17.2v11.4a6.187,6.187,0,0,0,6.18,6.18h2.512v3.509a9.02,9.02,0,1,0,18.04,0V91.617H82.768v3.509a9.02,9.02,0,1,0,18.04,0V91.617h2.512a6.187,6.187,0,0,0,6.18-6.18v-11.4A17.611,17.611,0,0,0,95.54,56.83Zm-39.29-28.2a2.275,2.275,0,0,1,2.272-2.273H69.478a2.275,2.275,0,0,1,2.272,2.273V31.32H56.25ZM34.96,56.45V44.423a10.614,10.614,0,0,1,10.6-10.6H82.437a10.614,10.614,0,0,1,10.6,10.6V56.45Zm7.772,38.676a6.52,6.52,0,1,1-13.04,0V91.617h13.04Zm55.576,0a6.52,6.52,0,1,1-13.04,0V91.617h13.04ZM107,85.438a3.684,3.684,0,0,1-3.68,3.68H24.68A3.684,3.684,0,0,1,21,85.438v-11.4A15.1,15.1,0,0,1,36.084,58.95H91.916A15.1,15.1,0,0,1,107,74.034Z"/><path d="M40.251,70.039a7.791,7.791,0,1,0,7.79,7.791A7.8,7.8,0,0,0,40.251,70.039Zm0,13.082a5.291,5.291,0,1,1,5.29-5.291A5.3,5.3,0,0,1,40.251,83.121Z"/><path d="M87.749,70.039A7.791,7.791,0,1,0,95.54,77.83,7.8,7.8,0,0,0,87.749,70.039Zm0,13.082A5.291,5.291,0,1,1,93.04,77.83,5.3,5.3,0,0,1,87.749,83.121Z"/></svg>
